src/assets/Imgs/proposal/linkIcon-black.svg

<svg fill="none" height="16" viewBox="0 0 16 16" width="16" xmlns="http://www.w3.org/2000/svg"><g fill="#1a1323"><path d="m12.1817 14.909h-8.36361c-.72302-.001-1.41615-.2886-1.92741-.7999-.51125-.5112-.7989-1.2043-.79986-1.9274v-8.36361c.00096-.72302.28861-1.41615.79986-1.92741.51126-.51125 1.20439-.7989 1.92741-.79986h4.18182c.14467 0 .2834.05747.3857.15976.10229.10229.15976.24103.15976.38569 0 .14467-.05747.28341-.15976.3857-.1023.10229-.24103.15976-.3857.15976h-4.18182c-.43369.00096-.84935.17367-1.15602.48034s-.47938.72233-.48034 1.15602v8.36361c.00096.4337.17367.8494.48034 1.1561.30667.3066.72233.4793 1.15602.4803h8.36361c.4337-.001.8494-.1737 1.1561-.4803.3066-.3067.4793-.7224.4803-1.1561v-4.18179c0-.14466.0575-.2834.1598-.38569.1022-.10229.241-.15976.3856-.15976.1447 0 .2835.05747.3857.15976.1023.10229.1598.24103.1598.38569v4.18179c-.001.7231-.2886 1.4162-.7999 1.9274-.5112.5113-1.2043.7989-1.9274.7999z"/><path d="m7.81798 8.72725c-.14454-.00052-.28304-.05801-.38546-.16-.05101-.05039-.09151-.11042-.11916-.17658-.02764-.06617-.04188-.13716-.04188-.20887s.01424-.14271.04188-.20888c.02765-.06616.06815-.12618.11916-.17658l6.54548-6.54545c.1034-.09635.2401-.14881.3815-.14631.1413.00249.2761.05974.376.15967.1.09994.1572.23476.1597.37607s-.05.27808-.1463.38148l-6.54547 6.54545c-.10242.10199-.24092.15948-.38545.16z"/><path d="m14.3637 2.18173h-2.9091c-.1446 0-.2834-.05747-.3857-.15976s-.1597-.24103-.1597-.3857c0-.14466.0574-.2834.1597-.38569s.2411-.15976.3857-.15976h2.9091c.1447 0 .2834.05747.3857.15976s.1598.24103.1598.38569c0 .14467-.0575.28341-.1598.3857s-.241.15976-.3857.15976z"/><path d="m14.3638 5.09082c-.1447 0-.2834-.05747-.3857-.15976s-.1597-.24103-.1597-.38569v-2.9091c0-.14466.0574-.2834.1597-.38569s.241-.15976.3857-.15976.2834.05747.3857.15976.1598.24103.1598.38569v2.9091c0 .14466-.0575.2834-.1598.38569s-.241.15976-.3857.15976z"/></g></svg>

<svg width="16" height="16" viewBox="0 0 16 16" fill="none" xmlns="http://www.w3.org/2000/svg">
<g id="Frame">
<path id="Vector" d="M12.1817 14.909H3.81809C3.09507 14.908 2.40194 14.6204 1.89068 14.1091C1.37943 13.5979 1.09178 12.9048 1.09082 12.1817V3.81809C1.09178 3.09507 1.37943 2.40194 1.89068 1.89068C2.40194 1.37943 3.09507 1.09178 3.81809 1.09082H7.99991C8.14458 1.09082 8.28331 1.14829 8.38561 1.25058C8.4879 1.35287 8.54537 1.49161 8.54537 1.63627C8.54537 1.78094 8.4879 1.91968 8.38561 2.02197C8.28331 2.12426 8.14458 2.18173 7.99991 2.18173H3.81809C3.3844 2.18269 2.96874 2.3554 2.66207 2.66207C2.3554 2.96874 2.18269 3.3844 2.18173 3.81809V12.1817C2.18269 12.6154 2.3554 13.0311 2.66207 13.3378C2.96874 13.6444 3.3844 13.8171 3.81809 13.8181H12.1817C12.6154 13.8171 13.0311 13.6444 13.3378 13.3378C13.6444 13.0311 13.8171 12.6154 13.8181 12.1817V7.99991C13.8181 7.85525 13.8756 7.71651 13.9779 7.61422C14.0801 7.51193 14.2189 7.45446 14.3635 7.45446C14.5082 7.45446 14.647 7.51193 14.7492 7.61422C14.8515 7.71651 14.909 7.85525 14.909 7.99991V12.1817C14.908 12.9048 14.6204 13.5979 14.1091 14.1091C13.5979 14.6204 12.9048 14.908 12.1817 14.909Z" fill="#1A1323"/>
<path id="Vector_2" d="M7.81798 8.72725C7.67344 8.72673 7.53494 8.66924 7.43252 8.56725C7.38151 8.51686 7.34101 8.45683 7.31336 8.39067C7.28572 8.3245 7.27148 8.25351 7.27148 8.1818C7.27148 8.11009 7.28572 8.03909 7.31336 7.97292C7.34101 7.90676 7.38151 7.84674 7.43252 7.79634L13.978 1.25089C14.0814 1.15454 14.2181 1.10208 14.3595 1.10458C14.5008 1.10707 14.6356 1.16432 14.7355 1.26425C14.8355 1.36419 14.8927 1.49901 14.8952 1.64032C14.8977 1.78163 14.8452 1.9184 14.7489 2.0218L8.20343 8.56725C8.10101 8.66924 7.96251 8.72673 7.81798 8.72725Z" fill="#1A1323"/>
<path id="Vector_3" d="M14.3637 2.18173H11.4546C11.31 2.18173 11.1712 2.12426 11.0689 2.02197C10.9666 1.91968 10.9092 1.78094 10.9092 1.63627C10.9092 1.49161 10.9666 1.35287 11.0689 1.25058C11.1712 1.14829 11.31 1.09082 11.4546 1.09082H14.3637C14.5084 1.09082 14.6471 1.14829 14.7494 1.25058C14.8517 1.35287 14.9092 1.49161 14.9092 1.63627C14.9092 1.78094 14.8517 1.91968 14.7494 2.02197C14.6471 2.12426 14.5084 2.18173 14.3637 2.18173Z" fill="#1A1323"/>
<path id="Vector_4" d="M14.3638 5.09082C14.2191 5.09082 14.0804 5.03335 13.9781 4.93106C13.8758 4.82877 13.8184 4.69003 13.8184 4.54537V1.63627C13.8184 1.49161 13.8758 1.35287 13.9781 1.25058C14.0804 1.14829 14.2191 1.09082 14.3638 1.09082C14.5085 1.09082 14.6472 1.14829 14.7495 1.25058C14.8518 1.35287 14.9093 1.49161 14.9093 1.63627V4.54537C14.9093 4.69003 14.8518 4.82877 14.7495 4.93106C14.6472 5.03335 14.5085 5.09082 14.3638 5.09082Z" fill="#1A1323"/>
</g>
</svg>
